X: 33710
T: Rapa Bestas
R: reel
M: 4/4
K: Adorian
|:"A2"eAAA cA"A2"dA|fdAe "G6/9"cAdA|"A2"eAAA BA"A2"cA|dcAB "G6/9"cAdA|
"A2"eAAA BA"A2"cA|deAf "G6/9"dAg2|"D2"agAf dA"FM7"ge|AfdA e4:|
|:"Em7"b2ge ea"D2"fd|dAAA eAfg|"C2"bgea af"D2"d2|dABc gfdB|
"A2"c'bge ea"B11"fd|dAAA cAde|1 "C2"e8|"D2"e8:|2 "C2"e4 f4|"D2"f8||

